flaticon/essential/dislike-1.svg

<svg xmlns="http://www.w3.org/2000/svg" width="32" height="32" viewBox="0 0 24 24">
    <path d="M 23.960938 7.496094 C 23.609375 3.640625 20.878906 0.84375 17.464844 0.84375 C 15.191406 0.84375 13.105469 2.066406 11.933594 4.03125 C 10.773438 2.042969 8.773438 0.84375 6.535156 0.84375 C 3.121094 0.84375 0.390625 3.640625 0.0390625 7.496094 C 0.0117188 7.667969 -0.101562 8.5625 0.246094 10.023438 C 0.742188 12.132812 1.890625 14.050781 3.566406 15.570312 L 11.929688 23.15625 L 12.425781 22.714844 L 12.4375 22.71875 L 12.445312 22.695312 L 20.433594 15.570312 C 22.109375 14.050781 23.257812 12.132812 23.753906 10.023438 C 24.101562 8.5625 23.988281 7.667969 23.960938 7.496094 Z M 11.777344 21.777344 L 4.1875 14.886719 C 2.648438 13.492188 1.597656 11.738281 1.144531 9.8125 C 0.816406 8.429688 0.949219 7.648438 0.949219 7.644531 L 0.957031 7.597656 C 1.257812 4.21875 3.601562 1.765625 6.535156 1.765625 C 8.699219 1.765625 10.601562 3.09375 11.507812 5.234375 L 11.535156 5.304688 L 7.78125 9.058594 L 14.652344 9.976562 L 9.394531 14.796875 L 13.292969 17.234375 Z M 22.855469 9.8125 C 22.402344 11.738281 21.351562 13.492188 19.816406 14.882812 L 13.03125 20.9375 L 14.398438 16.835938 L 10.914062 14.65625 L 16.730469 9.320312 L 9.753906 8.390625 L 11.921875 6.222656 L 11.929688 6.242188 L 11.949219 6.199219 L 12.328125 5.820312 L 12.171875 5.667969 L 12.355469 5.234375 C 13.246094 3.128906 15.25 1.765625 17.464844 1.765625 C 20.398438 1.765625 22.742188 4.21875 23.046875 7.640625 C 23.050781 7.648438 23.183594 8.429688 22.855469 9.8125 Z M 22.855469 9.8125"/>
</svg>

<svg xmlns="http://www.w3.org/2000/svg" width="32" height="32" viewBox="0 0 24 24">
    <path d="M23.96 7.496C23.61 3.641 20.88.844 17.466.844c-2.274 0-4.36 1.222-5.531 3.187C10.774 2.043 8.774.844 6.535.844 3.121.844.391 3.64.04 7.496c-.027.172-.14 1.066.207 2.527.496 2.11 1.645 4.028 3.32 5.547l8.364 7.586.496-.441.011.004.008-.024 7.989-7.125c1.675-1.52 2.824-3.437 3.32-5.547.348-1.46.234-2.355.207-2.527zM11.778 21.777l-7.59-6.89c-1.539-1.395-2.59-3.149-3.042-5.075C.816 8.43.949 7.649.949 7.646l.008-.047c.3-3.38 2.645-5.832 5.578-5.832 2.164 0 4.067 1.328 4.973 3.468l.027.07L7.781 9.06l6.871.918-5.257 4.82 3.898 2.437zM22.855 9.812c-.453 1.926-1.503 3.68-3.039 5.07l-6.785 6.056 1.367-4.102-3.484-2.18L16.73 9.32l-6.976-.93 2.168-2.167.008.02.02-.044.378-.379-.156-.152.183-.434c.891-2.105 2.895-3.468 5.11-3.468 2.933 0 5.277 2.453 5.582 5.875.004.007.137.789-.192 2.171zm0 0"/>
</svg>
